asset/img/common/Tang’s_black.svg

<svg width="551" height="141" viewBox="0 0 551 141" fill="none" xmlns="http://www.w3.org/2000/svg">
<path d="M91.136 23.9359H57.216V107.648H33.92V23.9359H-2.86102e-06V3.32793H91.136V23.9359ZM117.763 109.44C110.68 109.44 104.366 107.733 98.819 104.32C93.2723 100.992 88.963 96.3413 85.891 90.3679C82.819 84.3946 81.283 77.6533 81.283 70.1439C81.283 62.6346 82.819 55.8933 85.891 49.9199C88.963 43.9466 93.2723 39.2959 98.819 35.9679C104.366 32.5546 110.68 30.8479 117.763 30.8479C127.406 30.8479 134.574 34.0053 139.267 40.3199V32.6399H162.051V107.648H139.267V99.9679C134.574 106.283 127.406 109.44 117.763 109.44ZM121.347 89.9839C126.894 89.9839 131.331 88.1493 134.659 84.4799C137.987 80.7253 139.651 75.9466 139.651 70.1439C139.651 64.3413 137.987 59.6053 134.659 55.9359C131.331 52.1813 126.894 50.3039 121.347 50.3039C115.971 50.3039 111.662 52.1813 108.419 55.9359C105.176 59.6053 103.555 64.3413 103.555 70.1439C103.555 75.9466 105.176 80.7253 108.419 84.4799C111.662 88.1493 115.971 89.9839 121.347 89.9839ZM214.448 109.44C206.939 109.44 200.197 107.733 194.224 104.32C188.336 100.992 183.728 96.3413 180.4 90.3679C177.072 84.3946 175.408 77.6533 175.408 70.1439C175.408 62.6346 177.072 55.8933 180.4 49.9199C183.728 43.9466 188.336 39.2959 194.224 35.9679C200.197 32.5546 206.939 30.8479 214.448 30.8479C221.957 30.8479 228.656 32.5546 234.544 35.9679C240.517 39.2959 245.168 43.9466 248.496 49.9199C251.824 55.8933 253.488 62.6346 253.488 70.1439C253.488 72.6186 253.317 75.0506 252.976 77.4399H198.064C198.917 81.7919 200.795 85.1626 203.696 87.5519C206.597 89.9413 210.181 91.1359 214.448 91.1359C217.691 91.1359 220.549 90.6239 223.024 89.5999C225.584 88.4906 227.333 87.0399 228.272 85.2479H251.184C249.904 90.0266 247.515 94.2079 244.016 97.7919C240.517 101.461 236.208 104.32 231.088 106.368C225.968 108.416 220.421 109.44 214.448 109.44ZM231.216 62.7199C230.277 58.1973 228.357 54.7839 225.456 52.4799C222.555 50.0906 218.885 48.8959 214.448 48.8959C210.011 48.8959 206.384 50.0906 203.568 52.4799C200.752 54.7839 198.875 58.1973 197.936 62.7199H231.216ZM266.873 32.6399H289.657V40.3199C294.35 34.0053 301.348 30.8479 310.649 30.8479C316.452 30.8479 321.572 32.2133 326.009 34.9439C330.446 37.5893 333.86 41.4293 336.249 46.4639C338.724 51.4986 339.961 57.4293 339.961 64.2559V107.648H317.177V68.0959C317.177 62.3786 316.025 58.0266 313.721 55.0399C311.502 51.9679 308.26 50.4319 303.993 50.4319C299.556 50.4319 296.057 52.0959 293.497 55.4239C290.937 58.7519 289.657 63.3173 289.657 69.1199V107.648H266.873V32.6399ZM393.645 140.672C386.477 140.672 380.248 139.435 374.957 136.96C369.752 134.571 365.613 131.328 362.541 127.232C359.469 123.136 357.506 118.571 356.653 113.536H379.693C380.973 118.827 385.624 121.472 393.645 121.472C398.424 121.472 402.264 120.064 405.165 117.248C408.066 114.432 409.517 110.677 409.517 105.984V98.0479C404.824 104.363 397.656 107.52 388.013 107.52C380.93 107.52 374.616 105.899 369.069 102.656C363.522 99.4133 359.213 94.8906 356.141 89.0879C353.069 83.2853 351.533 76.7573 351.533 69.5039C351.533 62.0799 353.069 55.4666 356.141 49.6639C359.213 43.7759 363.522 39.1679 369.069 35.8399C374.616 32.5119 380.93 30.8479 388.013 30.8479C397.656 30.8479 404.824 34.0053 409.517 40.3199V32.6399H432.301V106.24C432.301 112.896 430.637 118.827 427.309 124.032C423.981 129.323 419.373 133.419 413.485 136.32C407.682 139.221 401.069 140.672 393.645 140.672ZM391.597 88.7039C397.144 88.7039 401.581 86.9119 404.909 83.3279C408.237 79.7439 409.901 75.1359 409.901 69.5039C409.901 63.8719 408.237 59.2639 404.909 55.6799C401.581 52.0959 397.144 50.3039 391.597 50.3039C386.221 50.3039 381.912 52.0959 378.669 55.6799C375.426 59.2639 373.805 63.8719 373.805 69.5039C373.805 75.1359 375.426 79.7439 378.669 83.3279C381.912 86.9119 386.221 88.7039 391.597 88.7039ZM468.314 16.5119C468.314 23.5093 466.394 29.3546 462.554 34.0479C458.714 38.6559 453.381 41.2586 446.554 41.8559V31.7439C449.882 31.4026 452.485 30.1653 454.362 28.0319C456.325 25.8986 457.306 23.1679 457.306 19.8399H448.09V-7.62939e-05H468.314V16.5119ZM515.108 30.8479C521.337 30.8479 527.012 31.8719 532.132 33.9199C537.252 35.8826 541.348 38.6986 544.42 42.3679C547.492 46.0373 549.156 50.3039 549.412 55.1679H527.396C527.055 52.8639 525.689 51.0719 523.3 49.7919C520.996 48.4266 518.137 47.7439 514.724 47.7439C511.311 47.7439 508.452 48.2986 506.148 49.4079C503.929 50.4319 502.82 51.7973 502.82 53.5039C502.82 55.2959 504.143 56.7466 506.788 57.8559C509.433 58.9653 514.041 60.0319 520.612 61.0559C531.449 62.6773 539.172 65.3653 543.78 69.1199C548.388 72.8746 550.692 78.0373 550.692 84.6079C550.692 89.5573 549.113 93.9093 545.956 97.6639C542.799 101.419 538.532 104.32 533.156 106.368C527.78 108.416 521.892 109.44 515.492 109.44C509.007 109.44 503.119 108.373 497.828 106.24C492.623 104.192 488.441 101.248 485.284 97.4079C482.212 93.5679 480.548 89.0879 480.292 83.9679H502.308C502.649 86.3573 504.1 88.3199 506.66 89.8559C509.22 91.3066 512.292 92.0319 515.876 92.0319C519.545 92.0319 522.575 91.4346 524.964 90.2399C527.353 89.0453 528.548 87.5946 528.548 85.8879C528.548 84.0959 527.14 82.6026 524.324 81.4079C521.508 80.1279 516.9 79.0186 510.5 78.0799C500.687 76.6293 493.263 74.1546 488.228 70.6559C483.279 67.1573 480.804 61.8239 480.804 54.6559C480.804 49.8773 482.297 45.6959 485.284 42.1119C488.356 38.5279 492.495 35.7546 497.7 33.7919C502.905 31.8293 508.708 30.8479 515.108 30.8479Z" fill="black"/>
</svg>

<svg xmlns="http://www.w3.org/2000/svg" width="551" height="141" fill="none"><path fill="#000" d="M91.136 23.936h-33.92v83.712H33.92V23.936H0V3.328h91.136zm26.627 85.504q-10.624 0-18.944-5.12-8.32-4.992-12.928-13.952t-4.608-20.224 4.608-20.224 12.928-13.952q8.32-5.12 18.944-5.12 14.465 0 21.504 9.472v-7.68h22.784v75.008h-22.784v-7.68q-7.04 9.472-21.504 9.472m3.584-19.456q8.32 0 13.312-5.504 4.992-5.632 4.992-14.336t-4.992-14.208q-4.992-5.632-13.312-5.632-8.064 0-12.928 5.632-4.864 5.504-4.864 14.208t4.864 14.336q4.864 5.505 12.928 5.504m93.101 19.456q-11.264 0-20.224-5.12-8.832-4.992-13.824-13.952t-4.992-20.224T180.4 49.92t13.824-13.952q8.96-5.12 20.224-5.12t20.096 5.12q8.96 4.992 13.952 13.952t4.992 20.224q0 3.712-.512 7.296h-54.912q1.28 6.528 5.632 10.112t10.752 3.584q4.864 0 8.576-1.536 3.84-1.665 5.248-4.352h22.912q-1.92 7.168-7.168 12.544-5.248 5.504-12.928 8.576t-16.64 3.072m16.768-46.72q-1.409-6.784-5.76-10.24-4.352-3.584-11.008-3.584t-10.88 3.584q-4.224 3.456-5.632 10.24zm35.657-30.08h22.784v7.68q7.04-9.472 20.992-9.472 8.704 0 15.36 4.096 6.656 3.968 10.24 11.52 3.712 7.552 3.712 17.792v43.392h-22.784V68.096q0-8.576-3.456-13.056-3.328-4.608-9.728-4.608-6.656 0-10.496 4.992t-3.84 13.696v38.528h-22.784zm126.772 108.032q-10.752 0-18.688-3.712-7.808-3.584-12.416-9.728t-5.888-13.696h23.04q1.92 7.936 13.952 7.936 7.168 0 11.52-4.224t4.352-11.264v-7.936q-7.04 9.472-21.504 9.472-10.624 0-18.944-4.864t-12.928-13.568-4.608-19.584q0-11.136 4.608-19.84 4.608-8.832 12.928-13.824t18.944-4.992q14.464 0 21.504 9.472v-7.68h22.784v73.6q0 9.984-4.992 17.792-4.992 7.937-13.824 12.288-8.704 4.352-19.84 4.352m-2.048-51.968q8.32 0 13.312-5.376t4.992-13.824-4.992-13.824-13.312-5.376q-8.064 0-12.928 5.376t-4.864 13.824 4.864 13.824 12.928 5.376m76.717-72.192q0 10.496-5.76 17.536-5.76 6.911-16 7.808V31.744q4.992-.512 7.808-3.712 2.944-3.2 2.944-8.192h-9.216V0h20.224zm46.794 14.336q9.344 0 17.024 3.072 7.68 2.944 12.288 8.448t4.992 12.8h-22.016q-.512-3.456-4.096-5.376-3.456-2.048-8.576-2.048t-8.576 1.664q-3.328 1.537-3.328 4.096 0 2.688 3.968 4.352t13.824 3.2q16.256 2.432 23.168 8.064t6.912 15.488q0 7.424-4.736 13.056t-12.8 8.704-17.664 3.072q-9.728 0-17.664-3.2-7.808-3.072-12.544-8.832-4.608-5.76-4.992-13.44h22.016q.512 3.585 4.352 5.888 3.84 2.175 9.216 2.176 5.504 0 9.088-1.792t3.584-4.352q0-2.688-4.224-4.48-4.224-1.92-13.824-3.328-14.72-2.175-22.272-7.424-7.424-5.248-7.424-16 0-7.168 4.48-12.544 4.608-5.376 12.416-8.32t17.408-2.944"/></svg>
